!!!OTL: Wiegenlied.
!!!OTL-incipit:SCHLAF HERZENSSOEHNCHEN
!!!COM: C. M. v. Weber
!!!ARE: Europa, Mitteleuropa, Deutschland
!!!SCT: F0070
!!!TXL: @@DE
!!!YEM: Copyright 1995, estate of Helmut Schaffrath.
**kern	**text
*ICvox	*
*clefG2	*
*M3/8	*
*k[]	*
*C:	*
=1	=1
!LO:TX:a:t=Mäßig bewegt.	!
{8g	1._Schlaf,
8e	Herʒens-
8f	.
=2	=2
8.g	-Söhnchen,
16dd	.
8cc	mein
=3	=3
16ccqq	.
8.b	Liebling
16a	.
8b/	biſt
=4	=4
4cc	du,
8r}	.
=5	=5
{8.b/	ſchließe
16b/	.
8b/	die
=6	=6
8cc	blauen
8b	.
16eeL	Guck-
16ddJ	.
=7	=7
8dd	-äu-
8cc	-ge-
16aL	-lein
16bJ	.
=8	=8
4g	ʒu,
8r}	.
=9	=9
{8.g	al-
16g	-les
8g	iſt
=10	=10
8a	ru-
8g	-hig,
8g	iſt
=11	=11
8g	ſtill
8g	wie
(16gL	im
16ccJ)	.
=12	=12
4cc	Grab,
8r}	.
=13	=13
{16ccqq	.
8.b	ſchlaf
16a	nur,
8b/	ich
=14	=14
(16cc\L	wehre
16eJ)	.
8e	.
(16aL	die
16gJ)	.
=15	=15
8.g	Fliegen
16f	.
(16dL	dir
16eJ)	.
=16	=16
4c	ab.
8r}	.
==	==
!!!AGN: Schlaf -, Wiegen - Lied
!!!ONB: ESAC (Essen Associative Code) Database: FINK
!!!AMT: simple triple
!!!AIN: vox
!!!EED: Helmut Schaffrath
!!!EEV: 1.0
!!!GTL: Volkslieder
!!Text: F. C. Hiemer
!!!source: Musikalischer Hausschatz der Deutschen. Eine Sammlung von über 1000 Liedern und Gesängen mit Singstimmen und Klavierbegleitung. Leipzig, Litterarisches Verlags-Haus.
!!!page: 42
!!!URL-scan: https://www.digitale-sammlungen.de/en/view/bsb11144622?page=50,51
!!!ENC: Anna Maria Matuszewska
!!!EEV: 2024/25/07
*-	*-
